public/assets/imgs/projetos/icons/pet.svg

<svg fill="none" height="46" viewBox="0 0 51 46" width="51" xmlns="http://www.w3.org/2000/svg"><path clip-rule="evenodd" d="m39.2948.201128c.2518.188451.3998.483242.3998.796171v4.341511c.6426.09574 1.3858.25796 2.0983.50929 1.0461.36893 2.3133 1.02979 2.842 2.2291.0629.14255.2233.33563.5721.54642.343.20726.7971.38817 1.3227.53644 1.0516.29668 2.2331.41994 2.9887.43912.4612.01174.8551.33368.9552.78062.1681.7505.5264 2.6149.5264 3.8315 0 .599-.2911 1.0968-.5791 1.4521-.2977.3674-.6808.6922-1.0593.9655-.7591.5482-1.6479.9944-2.241 1.2434-.1239.052-.257.0788-.3915.0788h-4.2163c-.1377 1.7708-.3566 4.1033-.6345 6.2333-.1648 1.2624-.3523 2.4699-.5594 3.4531-.1034.4909-.2147.9413-.3353 1.3218-.1067.3368-.2422.6911-.4259.9735-.7728 1.4455-.8224 3.4704-.4628 5.5685.3557 2.0754 1.0796 4.0378 1.6317 5.1958.0668.0467.234.1396.5638.2133.6514.1312 1.1979.3989 1.6031.8153.4092.4205.6058.9224.6743 1.4003.1301.9066-.1835 1.8043-.4658 2.3392-.174.3297-.5186.5358-.8937.5345-4.9614-.0171-12.3906-.0376-18.554-.0436-3.082-.0029-5.8461-.0023-7.8267.0042-.5339.0017-1.0102.0039-1.4199.0066-.1463.0009-.284.0019-.4129.003-.1799.0015-.3426.003-.4868.0048-.2697.0032-.4691.0068-.5956.0107l-.0351.0011-.0274.0011c-.1721.0272-.3535.0104-.5272-.0578-4.23943-1.6633-6.32172-5.479-6.8649-9.3707-1.16207-.362-2.72012-1.0824-4.0213-2.4072-1.38803-1.4133-2.4365-3.4691-2.4365-6.3526 0-4.3714 2.38461-7.2303 5.17735-8.9878 2.75772-1.7354 5.97285-2.4478 7.93265-2.6025.4795-.0378.9188.2668 1.0478.7267s-.0884.946-.5187 1.1594c-2.4556 1.2185-4.22836 3.623-5.16035 6.2589-.58564 1.6563-.81019 3.3184-.70487 4.7419.20063-.276.41757-.5456.6458-.8078.92685-1.065 2.11122-2.0898 3.36142-3.0244 2.5007-1.8692 5.3691-3.4542 7.2565-4.3481.5009-.2373 1.1008-.0266 1.3398.4704.2391.4971.0268 1.0924-.4741 1.3296-1.7972.8513-4.5439 2.3704-6.9129 4.1413-1.1847.8855-2.2488 1.8147-3.04965 2.7349-.81264.9337-1.28474 1.7794-1.41465 2.4974-.03846.2128-.07176.4273-.09986.6433-.00116.2687-.00803.5658-.02778.8661-.01638.2498-.0422.5187-.08372.7958-.01963 3.9388 1.69186 7.9717 5.54196 9.5971.1461-.0043.3589-.008.6271-.0112.3084-.0037.6975-.0068 1.1566-.0094.3537-.002.7489-.0037 1.1806-.0052 1.985-.0065 4.7526-.0071 7.8352-.0041 1.6894.0016 3.4738.0044 5.2764.0078-.2282-1.1627-.8613-1.9936-1.742-2.5797-1.1169-.7433-2.6906-1.1244-4.4492-1.1244h-.0086-.0009-.0026l-.0103-.0001-.0409-.0003-.1579-.0013-.1869-.0014-.3954-.0027c-.1785-.0012-.3819-.0025-.6046-.0037-.1628-.0009-.3359-.0018-.5173-.0027-.2556-.0012-.5276-.0024-.8102-.0033-1.5181-.0052-3.3301-.0052-4.5328.0154-.5549.0095-1.0125-.4292-1.0221-.9799-.0096-.5508.4325-1.0048.9875-1.0143 1.2259-.021 3.0567-.021 4.5743-.0158.3456.0012.6754.0027.9787.0042.2693.0013.5177.0027.7378.0041-.1235-2.6453-1.0875-4.2233-2.1707-5.1395-1.251-1.0579-2.7745-1.3326-3.7312-1.2181-.5509.066-1.0516-.3238-1.118-.8706-.0665-.5468.3262-1.0436.8772-1.1096 1.472-.1763 3.5662.2347 5.2756 1.6802 1.5907 1.3453 2.7613 3.51 2.8803 6.7013 1.6641.1232 3.2736.5648 4.5676 1.4259 1.4141.941 2.4019 2.355 2.6592 4.2405 1.2963.0028 2.5871.0059 3.8438.0092l.0033-.0141c.0303-.1328.0492-.3276.0192-.5837-.0596-.5087-.3155-1.277-1.0814-2.2605l-.0037-.0048c-1.6026-2.084-2.404-4.786-2.7792-7.2368-.377-2.463-.3399-4.7814-.1844-6.192.0603-.5475.5565-.9429 1.1082-.883s.9501.5523.8897 1.0998c-.1376 1.2489-.1758 3.3933.1736 5.6756.3511 2.2937 1.0775 4.6186 2.3881 6.3241 1.2257 1.5751 1.6009 3.0047 1.5008 4.081 1.6807.0047 3.266.0097 4.6798.0144.0533-.2095.0763-.4202.0511-.5957-.0204-.1423-.0672-.231-.1303-.2959-.0647-.0664-.2153-.1783-.5636-.2473l-.0112-.0024-.0097-.002c-.5586-.1232-.9961-.3164-1.3246-.5534-.2655-.1917-.5242-.4613-.6485-.7975-.6153-1.3007-1.3899-3.416-1.7767-5.6729-.3869-2.2575-.4195-4.8489.6979-6.8916l.0092-.0163c.0048-.0085.0098-.0169.0149-.0252.0063-.0105.0128-.0207.0195-.0308.0044-.0066.0088-.0131.0133-.0196.0235-.0336.0977-.1745.198-.491.0933-.2948.1892-.6756.2852-1.1317.1918-.9108.3717-2.061.5335-3.3012.3233-2.4772.5666-5.2488.6913-7.0431.0363-.5229.4744-.9286 1.0025-.9286h4.9401c.4845-.2172 1.1281-.5562 1.6601-.9404.3019-.2181.5313-.4246.6758-.6029.1085-.1338.1313-.2042.1353-.2167-.0023-.7254-.1725-1.8257-.3282-2.649-.7981-.0674-1.7672-.211-2.6818-.469-.627-.1769-1.2673-.4183-1.8185-.7515-.5454-.3296-1.0791-.79512-1.368-1.45044-.1747-.39639-.7289-.8159-1.6738-1.14916-.8881-.31329-1.8722-.46181-2.4909-.499-.5304-.0319-.9442-.46809-.9442-.99546v-3.70128c-1.4815.89423-3.2073 2.74849-3.1406 5.92441.0576 2.74093-1.3387 5.21573-2.9611 7.13213-1.6331 1.9291-3.6007 3.419-4.9378 4.2153-.476.2834-1.0933.1302-1.3788-.3421-.2856-.4723-.1313-1.0849.3446-1.3682 1.1752-.6997 2.9635-2.052 4.4332-3.788 1.4803-1.7486 2.5335-3.7616 2.4906-5.80762-.113-5.38115 3.8352-7.87984 5.8788-8.4593168.3032-.0859476.6295-.0256869.8812.1627648zm-32.88369 31.971072-.00005-.0027-.00111-.0622-.00165-.1018c-.99051-2.2966-.83963-5.4454.17395-8.312.5768-1.6312 1.45562-3.2374 2.63363-4.605-.99364.3489-2.01371.8106-2.96215 1.4074-2.37848 1.4968-4.24388 3.7906-4.24388 7.3034 0 2.3522.83582 3.9116 1.86589 4.9604.74609.7596 1.61823 1.2743 2.4043 1.6094.01154-.0579.02227-.1167.03214-.1765.00798-.5343.04337-1.0619.10452-1.5773-.00055-.1567-.00316-.3046-.00559-.4431zm7.38999 13.8178c-.0012.0001-.0003 0 .0032-.0003zm9.8147-25.421c0 .5508-.4499.9973-1.0049.9973-.5551 0-1.005-.4465-1.005-.9973s.4499-.9973 1.005-.9973c.555 0 1.0049.4465 1.0049.9973zm16.1637-8.8566c.4466-.0605.7155-.0311.8395.0315.0384.0194.0511.0355.0623.0604.0164.0366.0454.1354.0221.3436-.0383.3421.2101.6503.5548.6883.3448.038.6553-.2085.6936-.5506.0396-.3529.0109-.6903-.1231-.9888-.1393-.3101-.37-.5277-.6404-.6641-.4936-.2491-1.104-.2197-1.5786-.1555-.3437.0465-.5843.3607-.5374.7018s.3635.5799.7072.5334z" fill="#000" fill-rule="evenodd"/></svg>

<svg width="51" height="46" viewBox="0 0 51 46" fill="none" xmlns="http://www.w3.org/2000/svg">
<path fill-rule="evenodd" clip-rule="evenodd" d="M39.2948 0.201128C39.5466 0.389579 39.6946 0.68437 39.6946 0.997299V5.33881C40.3372 5.43455 41.0804 5.59677 41.7929 5.8481C42.839 6.21703 44.1062 6.87789 44.6349 8.0772C44.6978 8.21975 44.8582 8.41283 45.207 8.62362C45.55 8.83088 46.0041 9.01179 46.5297 9.16006C47.5813 9.45674 48.7628 9.58 49.5184 9.59918C49.9796 9.61092 50.3735 9.93286 50.4736 10.3798C50.6417 11.1303 51 12.9947 51 14.2113C51 14.8103 50.7089 15.3081 50.4209 15.6634C50.1232 16.0308 49.7401 16.3556 49.3616 16.6289C48.6025 17.1771 47.7137 17.6233 47.1206 17.8723C46.9967 17.9243 46.8636 17.9511 46.7291 17.9511H42.5128C42.3751 19.7219 42.1562 22.0544 41.8783 24.1844C41.7135 25.4468 41.526 26.6543 41.3189 27.6375C41.2155 28.1284 41.1042 28.5788 40.9836 28.9593C40.8769 29.2961 40.7414 29.6504 40.5577 29.9328C39.7849 31.3783 39.7353 33.4032 40.0949 35.5013C40.4506 37.5767 41.1745 39.5391 41.7266 40.6971C41.7934 40.7438 41.9606 40.8367 42.2904 40.9104C42.9418 41.0416 43.4883 41.3093 43.8935 41.7257C44.3027 42.1462 44.4993 42.6481 44.5678 43.126C44.6979 44.0326 44.3843 44.9303 44.102 45.4652C43.928 45.7949 43.5834 46.001 43.2083 45.9997C38.2469 45.9826 30.8177 45.9621 24.6543 45.9561C21.5723 45.9532 18.8082 45.9538 16.8276 45.9603C16.2937 45.962 15.8174 45.9642 15.4077 45.9669C15.2614 45.9678 15.1237 45.9688 14.9948 45.9699C14.8149 45.9714 14.6522 45.9729 14.508 45.9747C14.2383 45.9779 14.0389 45.9815 13.9124 45.9854L13.8773 45.9865L13.8499 45.9876C13.6778 46.0148 13.4964 45.998 13.3227 45.9298C9.08327 44.2665 7.00098 40.4508 6.4578 36.5591C5.29573 36.1971 3.73768 35.4767 2.4365 34.1519C1.04847 32.7386 0 30.6828 0 27.7993C0 23.4279 2.38461 20.569 5.17735 18.8115C7.93507 17.0761 11.1502 16.3637 13.11 16.209C13.5895 16.1712 14.0288 16.4758 14.1578 16.9357C14.2868 17.3956 14.0694 17.8817 13.6391 18.0951C11.1835 19.3136 9.41074 21.7181 8.47875 24.354C7.89311 26.0103 7.66856 27.6724 7.77388 29.0959C7.97451 28.8199 8.19145 28.5503 8.41968 28.2881C9.34653 27.2231 10.5309 26.1983 11.7811 25.2637C14.2818 23.3945 17.1502 21.8095 19.0376 20.9156C19.5385 20.6783 20.1384 20.889 20.3774 21.386C20.6165 21.8831 20.4042 22.4784 19.9033 22.7156C18.1061 23.5669 15.3594 25.086 12.9904 26.8569C11.8057 27.7424 10.7416 28.6716 9.94075 29.5918C9.12811 30.5255 8.65601 31.3712 8.5261 32.0892C8.48764 32.302 8.45434 32.5165 8.42624 32.7325C8.42508 33.0012 8.41821 33.2983 8.39846 33.5986C8.38208 33.8484 8.35626 34.1173 8.31474 34.3944C8.29511 38.3332 10.0066 42.3661 13.8567 43.9915C14.0028 43.9872 14.2156 43.9835 14.4838 43.9803C14.7922 43.9766 15.1813 43.9735 15.6404 43.9709C15.9941 43.9689 16.3893 43.9672 16.821 43.9657C18.806 43.9592 21.5736 43.9586 24.6562 43.9616C26.3456 43.9632 28.13 43.966 29.9326 43.9694C29.7044 42.8067 29.0713 41.9758 28.1906 41.3897C27.0737 40.6464 25.5 40.2653 23.7414 40.2653L23.7328 40.2653H23.7319H23.7293L23.719 40.2652L23.6781 40.2649L23.5202 40.2636L23.3333 40.2622L22.9379 40.2595C22.7594 40.2583 22.556 40.257 22.3333 40.2558C22.1705 40.2549 21.9974 40.254 21.816 40.2531C21.5604 40.2519 21.2884 40.2507 21.0058 40.2498C19.4877 40.2446 17.6757 40.2446 16.473 40.2652C15.9181 40.2747 15.4605 39.836 15.4509 39.2853C15.4413 38.7345 15.8834 38.2805 16.4384 38.271C17.6643 38.25 19.4951 38.25 21.0127 38.2552C21.3583 38.2564 21.6881 38.2579 21.9914 38.2594C22.2607 38.2607 22.5091 38.2621 22.7292 38.2635C22.6057 35.6182 21.6417 34.0402 20.5585 33.124C19.3075 32.0661 17.784 31.7914 16.8273 31.9059C16.2764 31.9719 15.7757 31.5821 15.7093 31.0353C15.6428 30.4885 16.0355 29.9917 16.5865 29.9257C18.0585 29.7494 20.1527 30.1604 21.8621 31.6059C23.4528 32.9512 24.6234 35.1159 24.7424 38.3072C26.4065 38.4304 28.016 38.872 29.31 39.7331C30.7241 40.6741 31.7119 42.0881 31.9692 43.9736C33.2655 43.9764 34.5563 43.9795 35.813 43.9828L35.8163 43.9687C35.8466 43.8359 35.8655 43.6411 35.8355 43.385C35.7759 42.8763 35.52 42.108 34.7541 41.1245L34.7504 41.1197C33.1478 39.0357 32.3464 36.3337 31.9712 33.8829C31.5942 31.4199 31.6313 29.1015 31.7868 27.6909C31.8471 27.1434 32.3433 26.748 32.895 26.8079C33.4467 26.8678 33.8451 27.3602 33.7847 27.9077C33.6471 29.1566 33.6089 31.301 33.9583 33.5833C34.3094 35.877 35.0358 38.2019 36.3464 39.9074C37.5721 41.4825 37.9473 42.9121 37.8472 43.9884C39.5279 43.9931 41.1132 43.9981 42.527 44.0028C42.5803 43.7933 42.6033 43.5826 42.5781 43.4071C42.5577 43.2648 42.5109 43.1761 42.4478 43.1112C42.3831 43.0448 42.2325 42.9329 41.8842 42.8639L41.873 42.8615L41.8633 42.8595C41.3047 42.7363 40.8672 42.5431 40.5387 42.3061C40.2732 42.1144 40.0145 41.8448 39.8902 41.5086C39.2749 40.2079 38.5003 38.0926 38.1135 35.8357C37.7266 33.5782 37.694 30.9868 38.8114 28.9441L38.8206 28.9278C38.8254 28.9193 38.8304 28.9109 38.8355 28.9026C38.8418 28.8921 38.8483 28.8819 38.855 28.8718C38.8594 28.8652 38.8638 28.8587 38.8683 28.8522C38.8918 28.8186 38.966 28.6777 39.0663 28.3612C39.1596 28.0664 39.2555 27.6856 39.3515 27.2295C39.5433 26.3187 39.7232 25.1685 39.885 23.9283C40.2083 21.4511 40.4516 18.6795 40.5763 16.8852C40.6126 16.3623 41.0507 15.9566 41.5788 15.9566H46.5189C47.0034 15.7394 47.647 15.4004 48.179 15.0162C48.4809 14.7981 48.7103 14.5916 48.8548 14.4133C48.9633 14.2795 48.9861 14.2091 48.9901 14.1966C48.9878 13.4712 48.8176 12.3709 48.6619 11.5476C47.8638 11.4802 46.8947 11.3366 45.9801 11.0786C45.3531 10.9017 44.7128 10.6603 44.1616 10.3271C43.6162 9.9975 43.0825 9.53198 42.7936 8.87666C42.6189 8.48027 42.0647 8.06076 41.1198 7.7275C40.2317 7.41421 39.2476 7.26569 38.6289 7.2285C38.0985 7.1966 37.6847 6.76041 37.6847 6.23304V2.53176C36.2032 3.42599 34.4774 5.28025 34.5441 8.45617C34.6017 11.1971 33.2054 13.6719 31.583 15.5883C29.9499 17.5174 27.9823 19.0073 26.6452 19.8036C26.1692 20.087 25.5519 19.9338 25.2664 19.4615C24.9808 18.9892 25.1351 18.3766 25.611 18.0933C26.7862 17.3936 28.5745 16.0413 30.0442 14.3053C31.5245 12.5567 32.5777 10.5437 32.5348 8.49768C32.4218 3.11653 36.37 0.61784 38.4136 0.0383632C38.7168 -0.0475844 39.0431 0.0126763 39.2948 0.201128ZM6.41111 32.1722L6.41106 32.1695L6.40995 32.1073L6.4083 32.0055C5.41779 29.7089 5.56867 26.5601 6.58225 23.6935C7.15905 22.0623 8.03787 20.4561 9.21588 19.0885C8.22224 19.4374 7.20217 19.8991 6.25373 20.4959C3.87525 21.9927 2.00985 24.2865 2.00985 27.7993C2.00985 30.1515 2.84567 31.7109 3.87574 32.7597C4.62183 33.5193 5.49397 34.034 6.28004 34.3691C6.29158 34.3112 6.30231 34.2524 6.31218 34.1926C6.32016 33.6583 6.35555 33.1307 6.4167 32.6153C6.41615 32.4586 6.41354 32.3107 6.41111 32.1722ZM13.8011 45.99C13.7999 45.9901 13.8008 45.99 13.8043 45.9897L13.8011 45.99ZM23.6158 20.569C23.6158 21.1198 23.1659 21.5663 22.6109 21.5663C22.0558 21.5663 21.6059 21.1198 21.6059 20.569C21.6059 20.0182 22.0558 19.5717 22.6109 19.5717C23.1659 19.5717 23.6158 20.0182 23.6158 20.569ZM39.7795 11.7124C40.2261 11.6519 40.495 11.6813 40.619 11.7439C40.6574 11.7633 40.6701 11.7794 40.6813 11.8043C40.6977 11.8409 40.7267 11.9397 40.7034 12.1479C40.6651 12.49 40.9135 12.7982 41.2582 12.8362C41.603 12.8742 41.9135 12.6277 41.9518 12.2856C41.9914 11.9327 41.9627 11.5953 41.8287 11.2968C41.6894 10.9867 41.4587 10.7691 41.1883 10.6327C40.6947 10.3836 40.0843 10.413 39.6097 10.4772C39.266 10.5237 39.0254 10.8379 39.0723 11.179C39.1192 11.5201 39.4358 11.7589 39.7795 11.7124Z" fill="black"/>
</svg>
